X:1
T:Mary Hamilton
B:Journal of the English Folk Dance and Song Society, Dec 1936
S:From the Edinburgh Manuscripts (no 75). 
Z:Frank Kidson/Anne G Gilchrist
F:http://www.folkinfo.org/songs
M:6/8     %Meter
L:1/8     %
K:Bm
d |A2 B d2 e |f2 f f e c |d2 e d e f | A3-A2
w:Yes-treen the Queen had four Mar-ies_ To-night she'll hae_ but _three.
d |A2 F A2 A |(BA)F A2 A |(D3/2E/ D) DFA |B3-B2 |]
w: There~was Ma-ry Bea-ton~and Ma-*ry Sea-ton~And Ma-*ry Car-micheal and me._ 